X:199
T:The Blackbird
N:"Very slow" "1st Setting" "collected by J. O'Neill"
B:O'Neill's 199
Z:Transcribed by henrik.norbeck@mailbox.swipnet.se
M:C
L:1/8
K:D
5D/E/F/G/A/|B2 B2cBAG A2 A3/2B/4c/4|"~"dcdA G3/2A/4G/4 FE|DE~FG A"~"BA.G|TF2 D2 D2 5D/E/F/G/A/|
B2 B2cBAG A2 "~"fe|"~"dcdA G3/2A/4G/4 "~"FE|DE~FG A"~"BA.G|TF2 D2 D2||
D/E/F/G/|Ad~de "~"fd e3/2f/4g/4|"~"fd"~"ec "~"dcAG|Ad~de "~"fd ef/ag/|f2 d2 defg|
"~"agfa Tg2 "~"fe|dcde Tf2 agf/e/|"~"dc A/G/F G"~"BAG|TF2 D2 D2||
